X:268
T: Lianhuahao
N: C1765
O: China,Shandong Yanggu
S: III, 342]
R: Haozi, Huanghe wohao]
M: 2/4
L: 1/16
K: D
c2B2A2BB | c2B2A4 |
d2d2A2B2 | d4d2f2 | e2d2c2B2 | A4A4 |
A2BAG2GG | A2BAG4 |
A2A2BdBA | G4G2G2 | A2A2B2G2 | A4A4 |
d2dBA2AB | d2dBA2AB |
d2d2A2B2 | d4d2f2 | e2d2c2B2 | A4A4 |
A2BAG2GG | A2ABd2B2 |
A2GABdBA | G4G4 | A2A2BAG2 | A4A4

@@@ Tune index: 6823
